X: 1
T: Johnny Loughran's
M: 4/4
L: 1/8
R: reel
K: Cmaj
|:cA|GEcE GE~E2|GEcA ~G3A|GEcE GAcd|egge d2:|
|:ed|cdef ~g3e|~a3e gage|cdef g2ge|aege d2:|
